icons/evolvere-blue-folders-flat-vivid-dark-fallback/apps/64/xojo.svg

<?xml version="1.0" encoding="UTF-8" standalone="no"?>
<!-- Created with Inkscape (http://www.inkscape.org/) -->

<svg
   xmlns:dc="http://purl.org/dc/elements/1.1/"
   xmlns:cc="http://creativecommons.org/ns#"
   xmlns:rdf="http://www.w3.org/1999/02/22-rdf-syntax-ns#"
   xmlns:svg="http://www.w3.org/2000/svg"
   xmlns="http://www.w3.org/2000/svg"
   xmlns:sodipodi="http://sodipodi.sourceforge.net/DTD/sodipodi-0.dtd"
   xmlns:inkscape="http://www.inkscape.org/namespaces/inkscape"
   width="64"
   height="64"
   id="svg13094"
   version="1.1"
   inkscape:version="0.48.4 r9939"
   sodipodi:docname="xojo.svg">
  <sodipodi:namedview
     id="base"
     pagecolor="#ffffff"
     bordercolor="#666666"
     borderopacity="1.0"
     inkscape:pageopacity="0"
     inkscape:pageshadow="2"
     inkscape:zoom="11.313709"
     inkscape:cx="26.625611"
     inkscape:cy="30.462681"
     inkscape:document-units="px"
     inkscape:current-layer="svg13094"
     showgrid="true"
     inkscape:snap-bbox="true"
     inkscape:bbox-paths="true"
     inkscape:bbox-nodes="true"
     inkscape:snap-bbox-edge-midpoints="true"
     inkscape:snap-bbox-midpoints="true"
     inkscape:object-paths="true"
     inkscape:snap-intersection-paths="true"
     inkscape:object-nodes="true"
     inkscape:snap-smooth-nodes="true"
     inkscape:snap-midpoints="true"
     inkscape:snap-object-midpoints="true"
     inkscape:snap-center="true"
     showguides="true"
     inkscape:guide-bbox="true"
     inkscape:window-width="1920"
     inkscape:window-height="1025"
     inkscape:window-x="-2"
     inkscape:window-y="32"
     inkscape:window-maximized="1"
     inkscape:snap-global="true"
     fit-margin-top="0"
     fit-margin-left="0"
     fit-margin-right="0"
     fit-margin-bottom="0"
     showborder="true"
     inkscape:showpageshadow="false"
     inkscape:snap-page="true">
    <inkscape:grid
       type="xygrid"
       id="grid3075"
       empspacing="5"
       visible="true"
       enabled="true"
       snapvisiblegridlinesonly="true"
       originx="0px"
       originy="18px" />
  </sodipodi:namedview>
  <defs
     id="defs13096" />
  <metadata
     id="metadata13099">
    <rdf:RDF>
      <cc:Work
         rdf:about="">
        <dc:format>image/svg+xml</dc:format>
        <dc:type
           rdf:resource="http://purl.org/dc/dcmitype/StillImage" />
        <dc:title />
      </cc:Work>
    </rdf:RDF>
  </metadata>
  <path
     inkscape:connector-curvature="0"
     style="color:#000000;fill:#a5dc85;fill-opacity:1;fill-rule:nonzero;stroke:none;stroke-width:2.28571415000000000;marker:none;visibility:visible;display:inline;overflow:visible;enable-background:accumulate"
     d="m 0,4 0,30 0,28 2,2 30,0 30,0 2,-2 L 64,34 64,4 32,4 0,4 z"
     id="path3443" />
  <path
     inkscape:connector-curvature="0"
     style="color:#000000;fill:#e4ffcf;fill-opacity:1;fill-rule:nonzero;stroke:none;stroke-width:2.28571415000000000;marker:none;visibility:visible;display:inline;overflow:visible;enable-background:accumulate"
     d="M 2,0 0,1 0,4 32,4 64,4 64,1 62,0 32,0 2,0 z"
     id="path3447" />
  <path
     style="fill:#eaffda;fill-opacity:1;fill-rule:nonzero"
     d="M 0,3 0,6 2,4 z"
     id="path4298"
     inkscape:connector-curvature="0"
     sodipodi:nodetypes="cccc" />
  <path
     d="M 64,6 62,4 64,3 z"
     id="path3028"
     style="fill:#c6eeac;fill-opacity:1"
     inkscape:connector-curvature="0" />
  <g
     id="g3043"
     inkscape:export-filename="folder.png"
     inkscape:export-xdpi="90"
     inkscape:export-ydpi="90"
     transform="translate(-0.625,0.082283)" />
  <g
     id="scalable"
     transform="matrix(1.0385892,0,0,1.0385892,1214.7222,1878.8121)"
     inkscape:label="#g3701"
     style="fill:#ffffff" />
  <path
     style="opacity:1;color:#000000;fill:#5aa72a;fill-opacity:1;fill-rule:nonzero;stroke:none;stroke-width:2.28571415000000000;marker:none;visibility:visible;display:inline;overflow:visible;enable-background:accumulate"
     d="M 32 11 C 26.188937 11 20.892516 13.164248 16.84375 16.71875 L 29.15625 29.0625 C 30.723198 30.629449 33.276801 30.629449 34.84375 29.0625 L 47.15625 16.71875 C 43.107484 13.164248 37.811063 11 32 11 z M 14.71875 18.84375 C 11.164248 22.892516 9 28.188937 9 34 C 9 39.811063 11.164248 45.107484 14.71875 49.15625 L 27.0625 36.84375 C 28.629448 35.276801 28.629448 32.723198 27.0625 31.15625 L 14.71875 18.84375 z M 49.28125 18.84375 L 36.9375 31.15625 C 35.370552 32.723198 35.370552 35.276801 36.9375 36.84375 L 49.28125 49.15625 C 52.835752 45.107484 55 39.811063 55 34 C 55 28.188937 52.835752 22.892516 49.28125 18.84375 z M 32 37.78125 C 30.977524 37.78125 29.939724 38.154026 29.15625 38.9375 L 16.84375 51.28125 C 20.892516 54.835752 26.188937 57 32 57 C 37.811063 57 43.107484 54.835752 47.15625 51.28125 L 34.84375 38.9375 C 34.060276 38.154026 33.022476 37.78125 32 37.78125 z "
     id="rect3014" />
  <path
     style="opacity:1;color:#000000;fill:#8fce6b;fill-opacity:1;fill-rule:nonzero;stroke:none;stroke-width:2;marker:none;visibility:visible;display:inline;overflow:visible;enable-background:accumulate"
     d="M 32 11 C 19.297451 11 9 21.297451 9 34 C 9 46.702549 19.297451 57 32 57 C 44.702549 57 55 46.702549 55 34 C 55 21.297451 44.702549 11 32 11 z M 32 14 C 43.045695 14 52 22.954305 52 34 C 52 45.045695 43.045695 54 32 54 C 20.954305 54 12 45.045695 12 34 C 12 22.954305 20.954305 14 32 14 z "
     id="path3007" />
</svg>

<svg xmlns="http://www.w3.org/2000/svg" viewBox="0 0 64 64"><g color="#000"><path d="m0 4v30 28l2 2h30 30l2-2v-28-30h-32-32" fill="#a5dc85"/><path d="m2 0l-2 1v3h32 32v-3l-2-1h-30-30" fill="#e4ffcf"/></g><path d="m0 3v3l2-2z" fill="#eaffda"/><path d="m64 6l-2-2 2-1z" fill="#c6eeac"/><g color="#000"><path d="m32 11c-5.811 0-11.11 2.164-15.16 5.719l12.313 12.344c1.567 1.567 4.121 1.567 5.688 0l12.313-12.344c-4.049-3.555-9.345-5.719-15.16-5.719m-17.281 7.844c-3.555 4.049-5.719 9.345-5.719 15.16 0 5.811 2.164 11.11 5.719 15.16l12.344-12.313c1.567-1.567 1.567-4.121 0-5.688l-12.344-12.313m34.563 0l-12.344 12.313c-1.567 1.567-1.567 4.121 0 5.688l12.344 12.313c3.555-4.049 5.719-9.345 5.719-15.16 0-5.811-2.164-11.11-5.719-15.16m-17.281 18.938c-1.022 0-2.06.373-2.844 1.156l-12.313 12.344c4.049 3.555 9.345 5.719 15.16 5.719 5.811 0 11.11-2.164 15.16-5.719l-12.313-12.344c-.783-.783-1.821-1.156-2.844-1.156" fill="#5aa72a"/><path d="m32 11c-12.703 0-23 10.297-23 23 0 12.703 10.297 23 23 23 12.703 0 23-10.297 23-23 0-12.703-10.297-23-23-23m0 3c11.05 0 20 8.954 20 20 0 11.05-8.954 20-20 20-11.05 0-20-8.954-20-20 0-11.05 8.954-20 20-20" fill="#8fce6b"/></g></svg>
